src/assets/svg/icons/heroku-icon.svg

<svg width="80px" height="80px" viewBox="0 0 101 101" fill="none" xmlns="http://www.w3.org/2000/svg">
<path d="M0.276123 0.782227H100.276V100.782H0.276123V0.782227Z" fill="#6762A5"/>
<path d="M56.9761 79.5782V48.0822C56.9761 48.0822 59.0241 40.5462 31.7401 51.1662C31.6921 51.3022 31.6921 22.0382 31.6921 22.0382L40.6081 21.9822V40.7302C40.6081 40.7302 65.5681 30.8982 65.5681 48.1862V79.5782H56.9761ZM62.0561 33.3302H52.6001C56.0041 29.1702 59.0841 22.0382 59.0841 22.0382H68.8601C68.8641 22.0382 67.1881 26.6862 62.0561 33.3302ZM31.8521 79.5262V61.5902L40.8201 70.5582L31.8521 79.5262Z" fill="white"/>
</svg>

<svg xmlns="http://www.w3.org/2000/svg" width="80" height="80" viewBox="0 0 101 101" fill="none" xmlns:v="https://vecta.io/nano"><path d="M.276.782h100v100h-100v-100z" fill="#6762a5"/><path d="M56.976 79.578V48.082s2.048-7.536-25.236 3.084c-.048.136-.048-29.128-.048-29.128l8.916-.056V40.73s24.96-9.832 24.96 7.456v31.392h-8.592zm5.08-46.248H52.6c3.404-4.16 6.484-11.292 6.484-11.292h9.776c.004 0-1.672 4.648-6.804 11.292zM31.852 79.526V61.59l8.968 8.968-8.968 8.968z" fill="#fff"/></svg>
